folder/plugins/infohub/translate/asset/icon/icon.svg

<?xml version="1.0" encoding="UTF-8" standalone="no"?>
<!-- Created with Inkscape (http://www.inkscape.org/) -->

<svg
        xmlns:sketch="http://www.bohemiancoding.com/sketch/ns"
        xmlns:dc="http://purl.org/dc/elements/1.1/"
        xmlns:cc="http://creativecommons.org/ns#"
        xmlns:rdf="http://www.w3.org/1999/02/22-rdf-syntax-ns#"
        xmlns:svg="http://www.w3.org/2000/svg"
        xmlns="http://www.w3.org/2000/svg"
        xmlns:sodipodi="http://sodipodi.sourceforge.net/DTD/sodipodi-0.dtd"
        xmlns:inkscape="http://www.inkscape.org/namespaces/inkscape"
        id="svg11772"
        sodipodi:docname="glossy-yellow-button.svg"
        viewBox="0 0 323.01932 323.01932"
        version="1.1"
        inkscape:version="0.92.4 (f8dce91, 2019-08-02)"
        width="100%"
        height="100%">
    <defs
            id="defs11774">
        <linearGradient
                id="linearGradient11724"
                y2="367.88"
                gradientUnits="userSpaceOnUse"
                x2="315.47"
                y1="287.48999"
                x1="241.41"
                inkscape:collect="always">
            <stop
                    id="stop4158-08"
                    style="stop-color:#ffffff"
                    offset="0"/>
            <stop
                    id="stop4160-1"
                    style="stop-color:#ffffff;stop-opacity:0"
                    offset="1"/>
        </linearGradient>
        <filter
                id="filter6126-75"
                inkscape:collect="always"
                style="color-interpolation-filters:sRGB">
            <feGaussianBlur
                    id="feGaussianBlur6128-0"
                    stdDeviation="0.53035713"
                    inkscape:collect="always"/>
        </filter>
        <linearGradient
                id="linearGradient11726"
                y2="391.45001"
                gradientUnits="userSpaceOnUse"
                x2="342"
                y1="300.85999"
                x1="275.60999"
                inkscape:collect="always">
            <stop
                    id="stop7230"
                    style="stop-color:#806600"
                    offset="0"/>
            <stop
                    id="stop7232"
                    style="stop-color:#ffcc00"
                    offset="1"/>
        </linearGradient>
        <radialGradient
                id="radialGradient11728"
                gradientUnits="userSpaceOnUse"
                cy="386.57001"
                cx="312.78"
                gradientTransform="matrix(-0.59327,-0.59327,0.71505,-0.71505,243.27,849.03)"
                r="53.035999"
                inkscape:collect="always">
            <stop
                    id="stop7113-6"
                    style="stop-color:#ffffff;stop-opacity:.40816"
                    offset="0"/>
            <stop
                    id="stop7115-7"
                    style="stop-color:#ffffff;stop-opacity:0"
                    offset="1"/>
        </radialGradient>
        <linearGradient
                id="linearGradient12030"
                y2="338.82001"
                gradientUnits="userSpaceOnUse"
                y1="286.67001"
                gradientTransform="matrix(0.95534,0,0,0.95534,-84.897,592.67)"
                x2="300.26999"
                x1="255.32001"
                inkscape:collect="always">
            <stop
                    id="stop4150-5"
                    style="stop-color:#ffffff"
                    offset="0"/>
            <stop
                    id="stop4152-5"
                    style="stop-color:#ffffff;stop-opacity:0"
                    offset="1"/>
        </linearGradient>
    </defs>
    <sodipodi:namedview
            id="base"
            bordercolor="#666666"
            inkscape:pageshadow="2"
            inkscape:window-y="34"
            pagecolor="#ffffff"
            inkscape:window-height="1009"
            inkscape:window-maximized="1"
            inkscape:zoom="0.98994949"
            inkscape:window-x="70"
            showgrid="false"
            borderopacity="1.0"
            inkscape:current-layer="layer1"
            inkscape:cx="173.37814"
            inkscape:cy="191.867"
            inkscape:window-width="1850"
            inkscape:pageopacity="0.0"
            inkscape:document-units="px"/>
    <g
            id="layer1"
            inkscape:label="Layer 1"
            inkscape:groupmode="layer"
            transform="translate(-37.867126,-690.43962)">
        <g
                id="g11680"
                transform="matrix(2.9051,0,0,2.9051,-366.51,-1771.2)">
            <circle
                    id="path7205"
                    style="fill:#999999"
                    transform="matrix(0.97354,0,0,0.97354,-100.92,565.99)"
                    cx="303.75"
                    cy="346.11218"
                    r="53.035713"/>
            <circle
                    id="path7207"
                    style="fill:url(#linearGradient11724)"
                    transform="matrix(0.9596,0,0,0.9596,-96.687,570.82)"
                    cx="303.75"
                    cy="346.11218"
                    r="53.035713"/>
            <circle
                    id="path7209"
                    style="fill:#ececec;filter:url(#filter6126-75)"
                    transform="matrix(0.87355,0,0,0.87355,-70.55,600.6)"
                    cx="303.75"
                    cy="346.11218"
                    r="53.035713"/>
            <circle
                    id="path7211"
                    style="fill:#999999;filter:url(#filter6126-75)"
                    transform="matrix(0.83838,0,0,0.83838,-59.869,612.77)"
                    cx="303.75"
                    cy="346.11218"
                    r="53.035713"/>
            <circle
                    id="path7213"
                    style="fill:url(#linearGradient11726)"
                    transform="matrix(0.80587,0,0,0.80587,-49.992,624.02)"
                    cx="303.75"
                    cy="346.11218"
                    r="53.035713"/>
            <circle
                    id="path7215"
                    style="fill:url(#radialGradient11728)"
                    transform="matrix(0.75825,0,0,0.75825,-34.266,642.52)"
                    cx="303.75"
                    cy="346.11218"
                    r="53.035713"/>
            <path
                    id="path7217"
                    style="opacity:0.31771001;fill:url(#linearGradient12030)"
                    inkscape:connector-curvature="0"
                    d="m 193.79,862.76 c -13.331,0.30069 -26.186,7.358 -33.336,19.742 -7.6903,13.32 -6.7139,29.266 1.1545,41.331 0.85306,-26.532 21.132,-46.515 46.324,-45.054 8.2589,0.47907 16.054,3.2001 22.859,7.5908 -3.2578,-7.4498 -8.8171,-13.953 -16.394,-18.327 -6.4867,-3.7451 -13.625,-5.4393 -20.608,-5.2818 z"/>
        </g>
        <g
                transform="matrix(6.8564439,0,0,8.6347696,96.779257,737.42442)"
                style="fill:none;fill-rule:evenodd;stroke:none;stroke-width:1"
                id="g20"
                sketch:type="MSPage">
            <g
                    style="fill:#000000"
                    id="g18"
                    transform="translate(-270,-135)"
                    sketch:type="MSArtboardGroup">
                <g
                        id="g16"
                        transform="translate(270,139)"
                        sketch:type="MSLayerGroup">
                    <path
                            inkscape:connector-curvature="0"
                            id="path6"
                            sketch:type="MSShapeGroup"
                            d="m 9.0693687,17.974851 3.3874983,2.484831 c 0.359444,0.263664 0.85815,-0.03929 0.789826,-0.479799 l -0.420352,-2.704276 0.101527,-0.038 c 3.089673,-1.258087 5.109275,-3.954654 5.109275,-6.984551 0,-4.2701573 -3.969932,-7.7000001 -8.8337664,-7.7000001 -4.8638345,0 -8.83376621,3.4298428 -8.83376621,7.7000001 0,4.141175 3.74243971,7.51238 8.43881131,7.692443 0,0 0.2562752,0.02592 0.260947,0.02935 z M 1.3696104,10.253056 c 0,-3.6827433 3.4923768,-6.7000001 7.8337662,-6.7000001 4.3413894,0 7.8337664,3.0172568 7.8337664,6.7000001 0,2.601708 -1.756329,4.946754 -4.473134,6.053207 l -0.272554,0.101794 c -0.340876,0.127585 -0.537332,0.473124 -0.483203,0.822115 l 0.261755,1.70983 -2.4091715,-1.77148 C 9.4891269,17.042568 9.2228021,16.953336 9.007449,16.949216 l -0.1703067,-0.0033 C 4.658588,16.785656 1.3696104,13.822931 1.3696104,10.253056 Z"/>
                    <path
                            inkscape:connector-curvature="0"
                            id="path8"
                            transform="matrix(-1,0,0,1,43.235712,0)"
                            sketch:type="MSShapeGroup"
                            d="m 27.425011,13.849515 c -0.511304,0.343637 -1.069667,0.641328 -1.668184,0.885039 l -0.101527,0.038 0.420351,2.704276 c 0.06832,0.440512 -0.430381,0.743463 -0.789825,0.4798 l -3.387499,-2.484832 c -0.0047,-0.0034 -0.260947,-0.02935 -0.260947,-0.02935 -4.696371,-0.180063 -8.438811,-3.551268 -8.438811,-7.692443 0,-4.2701572 3.969932,-7.69999995 8.833766,-7.69999995 3.532733,0 6.593887,1.80941495 8.004808,4.43600515 -0.301551,0.1533602 -0.589972,0.3235256 -0.863529,0.508953 C 27.946722,2.6747573 25.21812,1.050003 22.032335,1.050003 c -4.341389,0 -7.833766,3.0172569 -7.833766,6.7 0,3.569875 3.288978,6.5326 7.467532,6.692902 l 0.170307,0.0033 c 0.215353,0.0041 0.481678,0.09335 0.653386,0.219306 l 2.409172,1.771481 -0.261755,-1.709831 c -0.05413,-0.34899 0.142326,-0.69453 0.483203,-0.822115 l 0.272554,-0.101794 c 0.539323,-0.219646 1.040797,-0.488103 1.498194,-0.797688 0.154382,0.292334 0.332896,0.574362 0.533849,0.843993 z"/>
                    <path
                            inkscape:connector-curvature="0"
                            id="path10"
                            sketch:type="MSShapeGroup"
                            d="M 8.360858,9.327452 C 8.257532,9.354429 8.152703,9.384254 8.047178,9.416705 8.052774,9.090142 8.078875,8.751325 8.127752,8.400811 8.779563,8.355961 9.462496,8.251505 10.149894,8.104793 10.476019,8.035187 10.781334,7.960604 11.057718,7.885886 11.224997,7.840665 11.346669,7.805059 11.414511,7.783898 11.678127,7.70167 11.825171,7.421309 11.742943,7.157693 11.660716,6.894078 11.380355,6.747034 11.116739,6.829261 11.060661,6.846753 10.951178,6.878791 10.796748,6.920539 10.536953,6.990772 10.248903,7.061138 9.941164,7.12682 9.392299,7.243964 8.848141,7.33208 8.32801,7.38116 8.367756,7.223405 8.411981,7.063641 8.460859,6.901909 8.540745,6.637575 8.39122,6.358529 8.126885,6.278643 7.86255,6.198757 7.583504,6.348282 7.503618,6.612617 7.420551,6.88748 7.349618,7.157768 7.290159,7.423272 6.809227,7.412581 6.387595,7.353527 6.039137,7.242685 5.775987,7.158979 5.494804,7.304446 5.411098,7.567596 5.327392,7.830746 5.47286,8.111929 5.73601,8.195635 6.144061,8.325433 6.606651,8.397147 7.11691,8.418362 7.057977,8.896381 7.037006,9.356373 7.049534,9.796941 6.740088,9.939372 6.447861,10.099596 6.19554,10.271407 c -0.995773,0.678048 -1.413649,1.555076 -0.880605,2.488149 0.581031,1.017073 1.763077,1.004638 2.881858,0.171816 0.79583,-0.592418 1.520251,-1.546721 2.045457,-2.712056 0.715251,0.161551 1.212889,0.613313 1.212889,1.298079 0,0.527589 -0.317053,0.914155 -0.899221,1.201507 -0.223014,0.110076 -0.466508,0.194923 -0.710558,0.256351 -0.145409,0.0366 -0.25545,0.05669 -0.310883,0.06394 -0.273811,0.0358 -0.466755,0.286795 -0.430952,0.560606 0.035803,0.273812 0.286795,0.466756 0.560607,0.430953 0.344122,-0.045 0.834628,-0.168458 1.334394,-0.415136 0.890228,-0.439406 1.456613,-1.129969 1.456613,-2.098222 0,-1.212064 -0.783422,-1.966707 -1.846844,-2.24422 0.02247,-0.068751 0.04425,-0.13801 0.06533,-0.207752 0.07989,-0.264334 -0.06964,-0.54338 -0.333971,-0.623266 C 10.075319,8.36227 9.796273,8.511795 9.716387,8.77613 9.677833,8.903702 9.636693,9.029302 9.593149,9.152737 9.289611,9.15516 8.977586,9.189232 8.665516,9.255282 8.566001,9.276345 8.464173,9.300477 8.360841,9.327456 Z m 0.132778,1.000202 c -0.129493,0.03656 -0.261365,0.07809 -0.393218,0.123877 0.042743,0.346525 0.109686,0.675753 0.19729,0.986821 0.00211,0.0075 0.00421,0.01491 0.00632,0.02227 0.307749,-0.359312 0.594695,-0.790039 0.844711,-1.275058 -0.091151,0.0124 -0.183315,0.02839 -0.276153,0.04804 -0.122345,0.0259 -0.249466,0.05749 -0.378965,0.09405 z m -1.344565,0.535727 c 0.047176,0.29285 0.109757,0.57504 0.186079,0.846049 0.054223,0.192536 0.109233,0.357634 0.160876,0.494208 -0.643127,0.444415 -1.101067,0.430494 -1.312792,0.05988 -0.216679,-0.379288 -0.042416,-0.745028 0.57514,-1.165537 0.118783,-0.08088 0.250401,-0.1595 0.390697,-0.234597 z"/>
                    <path
                            inkscape:connector-curvature="0"
                            id="path12"
                            sketch:type="MSShapeGroup"
                            d="m 21.503557,6.0918114 1.522101,4.5663026 c 0.08732,0.261972 0.370484,0.403552 0.632456,0.316228 0.261971,-0.08732 0.403551,-0.370484 0.316228,-0.632456 l -2,-5.9999999 c -0.15195,-0.4558481 -0.796734,-0.4558481 -0.948684,0 l -2,5.9999999 c -0.08732,0.261972 0.05426,0.545132 0.316228,0.632456 0.261972,0.08732 0.545132,-0.05426 0.632456,-0.316228 z"/>
                    <rect
                            id="rect14"
                            height="1"
                            width="3"
                            y="8"
                            x="20"
                            sketch:type="MSShapeGroup"/>
                </g>
            </g>
        </g>
    </g>
    <metadata
            id="metadata116">
        <rdf:RDF>
            <cc:Work>
                <dc:format>image/svg+xml</dc:format>
                <dc:type
                        rdf:resource="http://purl.org/dc/dcmitype/StillImage"/>
                <cc:license
                        rdf:resource="http://creativecommons.org/licenses/publicdomain/"/>
                <dc:publisher>
                    <cc:Agent
                            rdf:about="http://openclipart.org/">
                        <dc:title>Openclipart</dc:title>
                    </cc:Agent>
                </dc:publisher>
                <dc:title></dc:title>
                <dc:date>2011-02-26T02:58:54</dc:date>
                <dc:description/>
                <dc:source>https://openclipart.org/detail/122755/glossy-yellow-button-by-ricardomaia</dc:source>
                <dc:creator>
                    <cc:Agent>
                        <dc:title>ricardomaia</dc:title>
                    </cc:Agent>
                </dc:creator>
                <dc:subject>
                    <rdf:Bag>
                        <rdf:li>button</rdf:li>
                        <rdf:li>glass</rdf:li>
                        <rdf:li>glossy</rdf:li>
                    </rdf:Bag>
                </dc:subject>
            </cc:Work>
            <cc:License
                    rdf:about="http://creativecommons.org/licenses/publicdomain/">
                <cc:permits
                        rdf:resource="http://creativecommons.org/ns#Reproduction"/>
                <cc:permits
                        rdf:resource="http://creativecommons.org/ns#Distribution"/>
                <cc:permits
                        rdf:resource="http://creativecommons.org/ns#DerivativeWorks"/>
            </cc:License>
        </rdf:RDF>
    </metadata>
</svg>

<?xml version="1.0" encoding="UTF-8"?>
<svg version="1.1" viewBox="0 0 323.02 323.02" xmlns="http://www.w3.org/2000/svg">
 <defs>
  <linearGradient id="e" x1="241.41" x2="315.47" y1="287.49" y2="367.88" gradientUnits="userSpaceOnUse">
   <stop stop-color="#fff" offset="0"/>
   <stop stop-color="#fff" stop-opacity="0" offset="1"/>
  </linearGradient>
  <filter id="a" color-interpolation-filters="sRGB">
   <feGaussianBlur stdDeviation="0.53035713"/>
  </filter>
  <linearGradient id="d" x1="275.61" x2="342" y1="300.86" y2="391.45" gradientUnits="userSpaceOnUse">
   <stop stop-color="#806600" offset="0"/>
   <stop stop-color="#fc0" offset="1"/>
  </linearGradient>
  <radialGradient id="b" cx="312.78" cy="386.57" r="53.036" gradientTransform="matrix(-.59327 -.59327 .71505 -.71505 243.27 849.03)" gradientUnits="userSpaceOnUse">
   <stop stop-color="#fff" stop-opacity=".40816" offset="0"/>
   <stop stop-color="#fff" stop-opacity="0" offset="1"/>
  </radialGradient>
  <linearGradient id="c" x1="255.32" x2="300.27" y1="286.67" y2="338.82" gradientTransform="matrix(.95534 0 0 .95534 -84.897 592.67)" gradientUnits="userSpaceOnUse">
   <stop stop-color="#fff" offset="0"/>
   <stop stop-color="#fff" stop-opacity="0" offset="1"/>
  </linearGradient>
 </defs>
 <g transform="translate(-37.867 -690.44)">
  <g transform="matrix(2.9051,0,0,2.9051,-366.51,-1771.2)">
   <circle transform="matrix(.97354 0 0 .97354 -100.92 565.99)" cx="303.75" cy="346.11" r="53.036" fill="#999"/>
   <circle transform="matrix(.9596 0 0 .9596 -96.687 570.82)" cx="303.75" cy="346.11" r="53.036" fill="url(#e)"/>
   <circle transform="matrix(.87355 0 0 .87355 -70.55 600.6)" cx="303.75" cy="346.11" r="53.036" fill="#ececec" filter="url(#a)"/>
   <circle transform="matrix(.83838 0 0 .83838 -59.869 612.77)" cx="303.75" cy="346.11" r="53.036" fill="#999" filter="url(#a)"/>
   <circle transform="matrix(.80587 0 0 .80587 -49.992 624.02)" cx="303.75" cy="346.11" r="53.036" fill="url(#d)"/>
   <circle transform="matrix(.75825 0 0 .75825 -34.266 642.52)" cx="303.75" cy="346.11" r="53.036" fill="url(#b)"/>
   <path d="m193.79 862.76c-13.331 0.30069-26.186 7.358-33.336 19.742-7.6903 13.32-6.7139 29.266 1.1545 41.331 0.85306-26.532 21.132-46.515 46.324-45.054 8.2589 0.47907 16.054 3.2001 22.859 7.5908-3.2578-7.4498-8.8171-13.953-16.394-18.327-6.4867-3.7451-13.625-5.4393-20.608-5.2818z" fill="url(#c)" opacity=".31771"/>
  </g>
  <g transform="matrix(6.8564 0 0 8.6348 96.779 737.42)" fill="none" fill-rule="evenodd">
   <g transform="translate(-270,-135)" fill="#000">
    <g transform="translate(270,139)">
     <path d="m9.0694 17.975 3.3875 2.4848c0.35944 0.26366 0.85815-0.03929 0.78983-0.4798l-0.42035-2.7043 0.10153-0.038c3.0897-1.2581 5.1093-3.9547 5.1093-6.9846 0-4.2702-3.9699-7.7-8.8338-7.7-4.8638 0-8.8338 3.4298-8.8338 7.7 0 4.1412 3.7424 7.5124 8.4388 7.6924 0 0 0.25628 0.02592 0.26095 0.02935zm-7.6998-7.7218c0-3.6827 3.4924-6.7 7.8338-6.7s7.8338 3.0173 7.8338 6.7c0 2.6017-1.7563 4.9468-4.4731 6.0532l-0.27255 0.10179c-0.34088 0.12758-0.53733 0.47312-0.4832 0.82212l0.26176 1.7098-2.4092-1.7715c-0.17171-0.12595-0.43803-0.21519-0.65339-0.21931l-0.17031-0.0033c-4.1786-0.16026-7.4675-3.123-7.4675-6.6929z"/>
     <path transform="matrix(-1 0 0 1 43.236 0)" d="m27.425 13.85c-0.5113 0.34364-1.0697 0.64133-1.6682 0.88504l-0.10153 0.038 0.42035 2.7043c0.06832 0.44051-0.43038 0.74346-0.78982 0.4798l-3.3875-2.4848c-0.0047-0.0034-0.26095-0.02935-0.26095-0.02935-4.6964-0.18006-8.4388-3.5513-8.4388-7.6924 0-4.2702 3.9699-7.7 8.8338-7.7 3.5327 0 6.5939 1.8094 8.0048 4.436-0.30155 0.15336-0.58997 0.32353-0.86353 0.50895-1.2269-2.3202-3.9555-3.945-7.1413-3.945-4.3414 0-7.8338 3.0173-7.8338 6.7 0 3.5699 3.289 6.5326 7.4675 6.6929l0.17031 0.0033c0.21535 0.0041 0.48168 0.09335 0.65339 0.21931l2.4092 1.7715-0.26176-1.7098c-0.05413-0.34899 0.14233-0.69453 0.4832-0.82212l0.27255-0.10179c0.53932-0.21965 1.0408-0.4881 1.4982-0.79769 0.15438 0.29233 0.3329 0.57436 0.53385 0.84399z"/>
     <path d="m8.3609 9.3275c-0.10333 0.026977-0.20816 0.056802-0.31368 0.089253 0.005596-0.32656 0.031697-0.66538 0.080574-1.0159 0.65181-0.04485 1.3347-0.14931 2.0221-0.29602 0.32612-0.069606 0.63144-0.14419 0.90782-0.21891 0.16728-0.045221 0.28895-0.080827 0.35679-0.10199 0.26362-0.082228 0.41066-0.36259 0.32843-0.6262-0.082227-0.26362-0.36259-0.41066-0.6262-0.32843-0.056078 0.017492-0.16556 0.04953-0.31999 0.091278-0.2598 0.070233-0.54784 0.1406-0.85558 0.20628-0.54886 0.11714-1.093 0.20526-1.6132 0.25434 0.039746-0.15776 0.083971-0.31752 0.13285-0.47925 0.079886-0.26433-0.069639-0.54338-0.33397-0.62327s-0.54338 0.069639-0.62327 0.33397c-0.083067 0.27486-0.154 0.54515-0.21346 0.81066-0.48093-0.010691-0.90256-0.069745-1.251-0.18059-0.26315-0.083706-0.54433 0.061761-0.62804 0.32491s0.061762 0.54433 0.32491 0.62804c0.40805 0.1298 0.87064 0.20151 1.3809 0.22273-0.058933 0.47802-0.079904 0.93801-0.067376 1.3786-0.30945 0.14243-0.60167 0.30266-0.85399 0.47447-0.99577 0.67805-1.4136 1.5551-0.8806 2.4881 0.58103 1.0171 1.7631 1.0046 2.8819 0.17182 0.79583-0.59242 1.5203-1.5467 2.0455-2.7121 0.71525 0.16155 1.2129 0.61331 1.2129 1.2981 0 0.52759-0.31705 0.91416-0.89922 1.2015-0.22301 0.11008-0.46651 0.19492-0.71056 0.25635-0.14541 0.0366-0.25545 0.05669-0.31088 0.06394-0.27381 0.0358-0.46676 0.2868-0.43095 0.56061 0.035803 0.27381 0.2868 0.46676 0.56061 0.43095 0.34412-0.045 0.83463-0.16846 1.3344-0.41514 0.89023-0.43941 1.4566-1.13 1.4566-2.0982 0-1.2121-0.78342-1.9667-1.8468-2.2442 0.02247-0.068751 0.04425-0.13801 0.06533-0.20775 0.07989-0.26433-0.06964-0.54338-0.33397-0.62327-0.26434-0.079886-0.54338 0.069639-0.62327 0.33397-0.038554 0.12757-0.079694 0.25317-0.12324 0.37661-0.30354 0.002423-0.61556 0.036495-0.92763 0.10254-0.099515 0.021063-0.20134 0.045195-0.30468 0.072174zm0.13278 1.0002c-0.12949 0.03656-0.26136 0.07809-0.39322 0.12388 0.042743 0.34652 0.10969 0.67575 0.19729 0.98682 0.00211 0.0075 0.00421 0.01491 0.00632 0.02227 0.30775-0.35931 0.5947-0.79004 0.84471-1.2751-0.091151 0.0124-0.18332 0.02839-0.27615 0.04804-0.12234 0.0259-0.24947 0.05749-0.37896 0.09405zm-1.3446 0.53573c0.047176 0.29285 0.10976 0.57504 0.18608 0.84605 0.054223 0.19254 0.10923 0.35763 0.16088 0.49421-0.64313 0.44442-1.1011 0.43049-1.3128 0.05988-0.21668-0.37929-0.042416-0.74503 0.57514-1.1655 0.11878-0.08088 0.2504-0.1595 0.3907-0.2346z"/>
     <path d="m21.504 6.0918 1.5221 4.5663c0.08732 0.26197 0.37048 0.40355 0.63246 0.31623 0.26197-0.08732 0.40355-0.37048 0.31623-0.63246l-2-6c-0.15195-0.45585-0.79673-0.45585-0.94868 0l-2 6c-0.08732 0.26197 0.05426 0.54513 0.31623 0.63246 0.26197 0.08732 0.54513-0.05426 0.63246-0.31623z"/>
     <rect x="20" y="8" width="3" height="1"/>
    </g>
   </g>
  </g>
 </g>
</svg>
